icons/desktop/20/line-spacing-20.svg

<svg width="20" height="20" viewBox="0 0 20 20" fill="none" xmlns="http://www.w3.org/2000/svg">
<path d="M17.125 18.25C17.6082 18.25 18 18.6418 18 19.125C18 19.6082 17.6082 20 17.125 20H2.875C2.39175 20 2 19.6082 2 19.125C2 18.6418 2.39175 18.25 2.875 18.25H17.125Z" fill="black"/>
<path d="M9.46875 3.46973C9.76175 3.17674 10.2373 3.17673 10.5303 3.46973L12.9961 5.93555C13.4691 6.40755 13.1338 7.21582 12.4658 7.21582H10.875V12.79H12.4658C13.1338 12.79 13.4691 13.5983 12.9961 14.0703L10.5303 16.5361C10.2373 16.8291 9.76175 16.8291 9.46875 16.5361L7.00293 14.0703C6.53093 13.5983 6.8652 12.79 7.5332 12.79H9.125V7.21582H7.5332C6.8652 7.21582 6.53093 6.40755 7.00293 5.93555L9.46875 3.46973Z" fill="black"/>
<path d="M17.125 0C17.6082 0 18 0.391751 18 0.875C18 1.35825 17.6082 1.75 17.125 1.75H2.875C2.39175 1.75 2 1.35825 2 0.875C2 0.391751 2.39175 0 2.875 0H17.125Z" fill="black"/>
</svg>

<!-- This Source Code Form is subject to the terms of the Mozilla Public
   - License, v. 2.0. If a copy of the MPL was not distributed with this
   - file, You can obtain one at http://mozilla.org/MPL/2.0/. -->
<svg xmlns="http://www.w3.org/2000/svg" width="20" height="20" fill="context-fill" fill-opacity="context-fill-opacity" viewBox="0 0 20 20">
    <path d="M17.125 18.25a.875.875 0 0 1 0 1.75H2.875a.875.875 0 0 1 0-1.75zM9.469 3.47a.75.75 0 0 1 1.061 0l2.466 2.466a.75.75 0 0 1-.53 1.28h-1.591v5.574h1.59a.75.75 0 0 1 .531 1.28l-2.466 2.466a.75.75 0 0 1-1.061 0L7.003 14.07a.75.75 0 0 1 .53-1.28h1.592V7.216H7.533a.75.75 0 0 1-.53-1.28zM17.125 0a.875.875 0 0 1 0 1.75H2.875a.875.875 0 1 1 0-1.75z" />
</svg>
